packages/core/src/svgs/tokens/branded/BTCMT.svg

<svg width="24" height="24" viewBox="0 0 24 24" fill="none" xmlns="http://www.w3.org/2000/svg">
<path d="M2.72941 5.59301C2.40588 5.41654 2 5.64008 2 6.00478V8.98126C2 9.31657 2.18823 9.62828 2.48823 9.80479L10.3705 14.2577C11.3765 14.8224 12.6236 14.8224 13.6294 14.2577L21.5118 9.80479C21.8118 9.62828 22 9.31657 22 8.98126V6.00478C22 5.64008 21.5882 5.41654 21.2706 5.59301L13.1412 10.1813C12.4353 10.5812 11.5646 10.5812 10.8589 10.1813L2.72941 5.59301ZM2.72941 11.3106C2.65608 11.269 2.57319 11.2469 2.48883 11.2468C2.40448 11.2466 2.32152 11.2685 2.24805 11.3099C2.17459 11.3514 2.11313 11.4112 2.06966 11.4834C2.02619 11.5557 2.00218 11.6381 2 11.7224V14.5813C2 14.9166 2.18234 15.2283 2.48235 15.4048L7.74117 18.4048C7.8145 18.4465 7.89739 18.4685 7.98175 18.4686C8.0661 18.4687 8.14906 18.447 8.22253 18.4056C8.29599 18.364 8.35746 18.3043 8.40092 18.232C8.44441 18.1596 8.4684 18.0773 8.47058 17.993V15.1343C8.47058 14.7989 8.28824 14.4871 7.98823 14.3107L2.72941 11.3106ZM22 11.7224C21.9978 11.6381 21.9738 11.5557 21.9303 11.4834C21.8869 11.4112 21.8254 11.3514 21.752 11.3099C21.6784 11.2685 21.5955 11.2466 21.5111 11.2468C21.4268 11.2469 21.3439 11.269 21.2706 11.3106L16.0117 14.3107C15.7177 14.4871 15.5294 14.7989 15.5294 15.1343V17.993C15.5316 18.0773 15.5556 18.1596 15.5991 18.232C15.6425 18.3043 15.704 18.364 15.7774 18.4056C15.851 18.447 15.9339 18.4687 16.0183 18.4686C16.1026 18.4685 16.1855 18.4465 16.2588 18.4048L21.5177 15.4048C21.8118 15.2283 22 14.9166 22 14.5813V11.7224Z" fill="#6DD9BF"/>
</svg>

<svg xmlns="http://www.w3.org/2000/svg" width="24" height="24" fill="none" viewBox="0 0 24 24">
    <path fill="#6DD9BF" d="M2.73 5.593c-.324-.176-.73.047-.73.412V8.98c0 .336.188.647.488.824l7.883 4.453a3.35 3.35 0 0 0 3.258 0l7.883-4.453A.97.97 0 0 0 22 8.98V6.005c0-.365-.412-.588-.73-.412l-8.129 4.588c-.706.4-1.576.4-2.282 0zm0 5.718a.49.49 0 0 0-.73.411v2.86c0 .335.182.646.482.823l5.26 3a.488.488 0 0 0 .729-.412v-2.859a.96.96 0 0 0-.483-.823zm19.27.411a.488.488 0 0 0-.73-.411l-5.258 3a.97.97 0 0 0-.483.823v2.859a.49.49 0 0 0 .73.412l5.259-3A.97.97 0 0 0 22 14.58z"/>
</svg>
